X:5268
T:Primrose Polka
O:england
M:4/4
L:1/8
R:Polka
K:D
FG^GA BAGA|f2d2f2d2|FG^GA BAGA|E6F2|EFGA BA^GA|e2c2c2B2|ABcB AGFE|1F4G4:
|2D4A2^G=G||
(F4F)G^GA|f6e2|dAGA d3c|c2B2B4|(E4E)FGA|c6B2|BA^GA BAGA|F2A2^G2F2|(F4F)G
^GA|f6e2|dAGA d3c|c2B2B4|gfef g2e2|fedef2d2|A2^GAf2e2|d4e4||
fedc d2A2|fedc d2A2|BAB2G2B2|A8|BAB2G2B2|A^GA2F4|E2EF ^GEFG|A2B2c2d2|fed
c d2A2|fedc d2A2|BAB2G2B2|A8|BAB2g2B2|A^GAf edcB|A2^GA f2e2|d8||


